src/assets/duotone/Calculator.svg

<svg width="24" height="24" viewBox="0 0 24 24"  xmlns="http://www.w3.org/2000/svg">
<path opacity="0.4" d="M8 22H16C18.76 22 21 19.76 21 17V7C21 4.24 18.76 2 16 2H8C5.24 2 3 4.24 3 7V17C3 19.76 5.24 22 8 22Z" />
<path d="M15.0001 5.70996H9.00012C7.97012 5.70996 7.12012 6.54996 7.12012 7.58996V8.58996C7.12012 9.61996 7.96012 10.47 9.00012 10.47H15.0001C16.0301 10.47 16.8801 9.62996 16.8801 8.58996V7.58996C16.8801 6.54996 16.0401 5.70996 15.0001 5.70996Z" />
<path d="M8.1599 14.9198C8.0199 14.9198 7.8899 14.8898 7.7699 14.8398C7.6499 14.7898 7.5399 14.7198 7.4499 14.6298C7.2599 14.4398 7.1499 14.1898 7.1499 13.9198C7.1499 13.7898 7.1799 13.6598 7.2299 13.5398C7.2799 13.4098 7.3499 13.3098 7.4499 13.2098C7.6799 12.9798 8.0299 12.8698 8.3499 12.9398C8.4099 12.9498 8.4799 12.9698 8.5399 12.9998C8.5999 13.0198 8.6599 13.0498 8.7099 13.0898C8.7699 13.1198 8.8199 13.1698 8.8599 13.2098C8.9499 13.3098 9.0299 13.4098 9.0799 13.5398C9.1299 13.6598 9.1499 13.7898 9.1499 13.9198C9.1499 14.1898 9.0499 14.4398 8.8599 14.6298C8.6699 14.8198 8.4199 14.9198 8.1599 14.9198Z" />
<path d="M12.1499 14.9201C11.8899 14.9201 11.6399 14.8201 11.4499 14.6301C11.2599 14.4401 11.1499 14.1901 11.1499 13.9201C11.1499 13.6601 11.2599 13.4001 11.4499 13.2101C11.8199 12.8401 12.4899 12.8401 12.8599 13.2101C12.9499 13.3101 13.0299 13.4101 13.0799 13.5401C13.1299 13.6601 13.1499 13.7901 13.1499 13.9201C13.1499 14.1901 13.0499 14.4401 12.8599 14.6301C12.6699 14.8201 12.4199 14.9201 12.1499 14.9201Z" />
<path d="M16.1499 14.9201C15.8899 14.9201 15.6399 14.8201 15.4499 14.6301C15.2599 14.4401 15.1499 14.1901 15.1499 13.9201C15.1499 13.6601 15.2599 13.4001 15.4499 13.2101C15.8199 12.8401 16.4899 12.8401 16.8599 13.2101C17.0499 13.4001 17.1599 13.6601 17.1599 13.9201C17.1599 14.0501 17.1299 14.1801 17.0799 14.3001C17.0299 14.4201 16.9599 14.5301 16.8599 14.6301C16.6699 14.8201 16.4199 14.9201 16.1499 14.9201Z" />
<path d="M8.1599 18.9198C7.8899 18.9198 7.6399 18.8198 7.4499 18.6298C7.2599 18.4398 7.1499 18.1898 7.1499 17.9198C7.1499 17.6598 7.2599 17.3998 7.4499 17.2098C7.5399 17.1198 7.6499 17.0498 7.7699 16.9998C8.0199 16.8998 8.2899 16.8998 8.5399 16.9998C8.5999 17.0198 8.6599 17.0498 8.7099 17.0898C8.7699 17.1198 8.8199 17.1698 8.8599 17.2098C9.0499 17.3998 9.1599 17.6598 9.1599 17.9198C9.1599 18.1898 9.0499 18.4398 8.8599 18.6298C8.6699 18.8198 8.4199 18.9198 8.1599 18.9198Z" />
<path d="M12.1499 18.9202C11.8899 18.9202 11.6399 18.8202 11.4499 18.6302C11.2599 18.4402 11.1499 18.1902 11.1499 17.9202C11.1499 17.8502 11.1599 17.7902 11.1699 17.7202C11.1899 17.6602 11.2099 17.6002 11.2299 17.5402C11.2599 17.4802 11.2899 17.4202 11.3199 17.3602C11.3599 17.3102 11.3999 17.2602 11.4499 17.2102C11.5399 17.1202 11.6499 17.0502 11.7699 17.0002C12.1399 16.8502 12.5799 16.9302 12.8599 17.2102C13.0499 17.4002 13.1499 17.6602 13.1499 17.9202C13.1499 18.1902 13.0499 18.4402 12.8599 18.6302C12.7699 18.7202 12.6599 18.7902 12.5399 18.8402C12.4199 18.8902 12.2899 18.9202 12.1499 18.9202Z" />
<path d="M16.1502 18.9202C16.0202 18.9202 15.8902 18.8902 15.7702 18.8402C15.6502 18.7902 15.5402 18.7202 15.4502 18.6302C15.2602 18.4402 15.1602 18.1902 15.1602 17.9202C15.1602 17.6602 15.2602 17.4002 15.4502 17.2102C15.7202 16.9302 16.1702 16.8502 16.5402 17.0002C16.6602 17.0502 16.7702 17.1202 16.8602 17.2102C17.0502 17.4002 17.1502 17.6602 17.1502 17.9202C17.1502 18.1902 17.0502 18.4402 16.8602 18.6302C16.6702 18.8202 16.4202 18.9202 16.1502 18.9202Z" />
</svg>

<?xml version="1.0" encoding="UTF-8"?>
<svg width="24" height="24" viewBox="0 0 24 24" xmlns="http://www.w3.org/2000/svg">
 <path d="m8 22h8c2.76 0 5-2.24 5-5v-10c0-2.76-2.24-5-5-5h-8c-2.76 0-5 2.24-5 5v10c0 2.76 2.24 5 5 5z" opacity=".4"/>
 <path d="m15 5.71h-6c-1.03 0-1.88 0.84-1.88 1.88v1c0 1.03 0.84 1.88 1.88 1.88h6c1.03 0 1.88-0.84004 1.88-1.88v-1c0-1.04-0.84-1.88-1.88-1.88z"/>
 <path d="m8.1599 14.92c-0.14 0-0.27-0.03-0.39-0.08s-0.23-0.12-0.32-0.21c-0.19-0.19-0.3-0.44-0.3-0.71 0-0.13 0.03-0.26 0.08-0.38 0.05-0.13 0.12-0.23 0.22-0.33 0.23-0.23 0.58-0.34 0.9-0.27 0.06 0.01 0.13 0.03 0.19 0.06 0.06 0.02 0.12 0.05 0.17 0.09 0.06 0.03 0.11 0.08 0.15 0.12 0.09 0.1 0.17 0.2 0.22 0.33 0.05 0.12 0.07 0.25 0.07 0.38 0 0.27-0.1 0.52-0.29 0.71s-0.44 0.29-0.7 0.29z"/>
 <path d="m12.15 14.92c-0.26 0-0.51-0.1-0.7-0.29s-0.3-0.44-0.3-0.71c0-0.26 0.11-0.52 0.3-0.71 0.37-0.37 1.04-0.37 1.41 0 0.09 0.1 0.17 0.2 0.22 0.33 0.05 0.12 0.07 0.25 0.07 0.38 0 0.27-0.1 0.52-0.29 0.71s-0.44 0.29-0.71 0.29z"/>
 <path d="m16.15 14.92c-0.26 0-0.51-0.1-0.7-0.29s-0.3-0.44-0.3-0.71c0-0.26 0.11-0.52 0.3-0.71 0.37-0.37 1.04-0.37 1.41 0 0.19 0.19 0.3 0.45 0.3 0.71 0 0.13-0.03 0.26-0.08 0.38s-0.12 0.23-0.22 0.33c-0.19 0.19-0.44 0.29-0.71 0.29z"/>
 <path d="m8.1599 18.92c-0.27 0-0.52-0.1-0.71-0.29s-0.3-0.44-0.3-0.71c0-0.26 0.11-0.52 0.3-0.71 0.09-0.09 0.2-0.16 0.32-0.21 0.25-0.1 0.52-0.1 0.77 0 0.06 0.02 0.12 0.05 0.17 0.09 0.06 0.03 0.11 0.08 0.15 0.12 0.19 0.19 0.3 0.45 0.3 0.71 0 0.27-0.11 0.52-0.3 0.71s-0.44 0.29-0.7 0.29z"/>
 <path d="m12.15 18.92c-0.26 0-0.51-0.1-0.7-0.29s-0.3-0.44-0.3-0.71c0-0.07 0.01-0.13 0.02-0.2l0.06-0.18 0.09-0.18c0.04-0.05 0.08-0.1 0.13-0.15 0.09-0.09 0.2-0.16 0.32-0.21 0.37-0.15 0.81-0.07 1.09 0.21 0.19 0.19 0.29 0.45 0.29 0.71 0 0.27-0.1 0.52-0.29 0.71-0.09 0.09-0.2 0.16-0.32 0.21s-0.25 0.08-0.39 0.08z"/>
 <path d="m16.15 18.92c-0.13 0-0.26-0.03-0.38-0.08s-0.23-0.12-0.32-0.21c-0.19-0.19-0.29-0.44-0.29-0.71 0-0.26 0.1-0.52 0.29-0.71 0.27-0.28 0.72-0.36 1.09-0.21 0.12 0.05 0.23 0.12 0.32 0.21 0.19 0.19 0.29 0.45 0.29 0.71 0 0.27-0.1 0.52-0.29 0.71s-0.44 0.29-0.71 0.29z"/>
</svg>
